ix/receipt-discount_twotone.svg

<svg viewBox="0 0 24 24" fill="none" xmlns="http://www.w3.org/2000/svg" height="1em" width="1em">
  <path d="M22 6v2.42C22 10 21 11 19.42 11H16V4.01C16 2.9 16.91 2 18.02 2c1.09.01 2.09.45 2.81 1.17C21.55 3.9 22 4.9 22 6Z" stroke="#292D32" stroke-width="1.5" stroke-miterlimit="10" stroke-linecap="round" stroke-linejoin="round"/>
  <path d="M2 7v14c0 .83.94 1.3 1.6.8l1.71-1.28c.4-.3.96-.26 1.32.1l1.66 1.67c.39.39 1.03.39 1.42 0l1.68-1.68c.35-.35.91-.39 1.3-.09l1.71 1.28c.66.49 1.6.02 1.6-.8V4c0-1.1.9-2 2-2H6C3 2 2 3.79 2 6v1Z" stroke="#292D32" stroke-width="1.5" stroke-miterlimit="10" stroke-linecap="round" stroke-linejoin="round"/>
  <path opacity=".4" d="m6.27 13.73 5.46-5.46" stroke="#292D32" stroke-width="1.5" stroke-linecap="round" stroke-linejoin="round"/>
  <path opacity=".4" d="M11.924 13.5h.01m-5.74-5h.009" stroke="#292D32" stroke-width="2" stroke-linecap="round" stroke-linejoin="round"/>
</svg>

<svg viewBox="0 0 24 24" fill="none" xmlns="http://www.w3.org/2000/svg" height="1em" width="1em">
  <path d="M22 6V8.42C22 10 21 11 19.42 11H16V4.01C16 2.9 16.91 2 18.02 2C19.11 2.01 20.11 2.45 20.83 3.17C21.55 3.9 22 4.9 22 6Z" stroke="#292D32" stroke-width="1.5" stroke-miterlimit="10" stroke-linecap="round" stroke-linejoin="round"/>
  <path d="M2 7V21C2 21.83 2.94 22.3 3.6 21.8L5.31 20.52C5.71 20.22 6.27 20.26 6.63 20.62L8.29 22.29C8.68 22.68 9.32 22.68 9.71 22.29L11.39 20.61C11.74 20.26 12.3 20.22 12.69 20.52L14.4 21.8C15.06 22.29 16 21.82 16 21V4C16 2.9 16.9 2 18 2H7H6C3 2 2 3.79 2 6V7Z" stroke="#292D32" stroke-width="1.5" stroke-miterlimit="10" stroke-linecap="round" stroke-linejoin="round"/>
  <path opacity="0.4" d="M6.26953 13.73L11.7295 8.27002" stroke="#292D32" stroke-width="1.5" stroke-linecap="round" stroke-linejoin="round"/>
  <path opacity="0.4" d="M11.9242 13.5H11.9332" stroke="#292D32" stroke-width="2" stroke-linecap="round" stroke-linejoin="round"/>
  <path opacity="0.4" d="M6.19373 8.5H6.20271" stroke="#292D32" stroke-width="2" stroke-linecap="round" stroke-linejoin="round"/>
</svg>
